X: 86
T:Derriere les Carreaux
M:2/2
L:1/8
C:Frederic Paris
R:Schottische
Z:Steve Mansfield
K:D minor
A2A2 A3G | FGAB G4 | E2G2 FAFD | EGFE FED2 | A2A2 A3G |
FGAB G4 | E2G2 FAFD | EGFE D4 :: A2A2 dcde | c2=BA G4 |
A2A2 DEFA | G2FE FED2 | A2A2 dcde | c2=BA G4 |A2A2 DEFA | G2FE D4 :|
<end>
<start>
